src/images/001-facebook.svg

<svg enable-background="new 0 0 512 512" viewBox="0 0 512 512" xmlns="http://www.w3.org/2000/svg"><path d="m452 0h-392c-33.084 0-60 26.916-60 60v392c0 33.084 26.916 60 60 60h392c33.084 0 60-26.916 60-60v-392c0-33.084-26.916-60-60-60zm20 452c0 11.028-8.972 20-20 20h-114v-163h61.79l10.21-62h-72v-43c0-16.975 13.025-30 30-30h41v-62h-41c-50.923 0-91.978 41.25-91.978 92.174v42.826h-60.022v62h60.022v163h-216.022c-11.028 0-20-8.972-20-20v-392c0-11.028 8.972-20 20-20h392c11.028 0 20 8.972 20 20z"/></svg>

<?xml version="1.0" encoding="iso-8859-1"?>
<!-- Generator: Adobe Illustrator 19.0.0, SVG Export Plug-In . SVG Version: 6.00 Build 0)  -->
<svg version="1.1" id="Capa_1" xmlns="http://www.w3.org/2000/svg" xmlns:xlink="http://www.w3.org/1999/xlink" x="0px" y="0px"
	 viewBox="0 0 512 512" style="enable-background:new 0 0 512 512;" xml:space="preserve">
<g>
	<g>
		<path d="M452,0H60C26.916,0,0,26.916,0,60v392c0,33.084,26.916,60,60,60h392c33.084,0,60-26.916,60-60V60
			C512,26.916,485.084,0,452,0z M472,452c0,11.028-8.972,20-20,20H338V309h61.79L410,247h-72v-43c0-16.975,13.025-30,30-30h41v-62
			h-41c-50.923,0-91.978,41.25-91.978,92.174V247H216v62h60.022v163H60c-11.028,0-20-8.972-20-20V60c0-11.028,8.972-20,20-20h392
			c11.028,0,20,8.972,20,20V452z"/>
	</g>
</g>
<g>
</g>
<g>
</g>
<g>
</g>
<g>
</g>
<g>
</g>
<g>
</g>
<g>
</g>
<g>
</g>
<g>
</g>
<g>
</g>
<g>
</g>
<g>
</g>
<g>
</g>
<g>
</g>
<g>
</g>
</svg>
